svg/business/auction_line.svg

<?xml version="1.0" encoding="UTF-8"?>
<svg width="24px" height="24px" viewBox="0 0 24 24" version="1.1" xmlns="http://www.w3.org/2000/svg" xmlns:xlink="http://www.w3.org/1999/xlink">
    <title>auction_line</title>
    <g id="页面-1" stroke="none" stroke-width="1" fill="none" fill-rule="evenodd">
        <g id="auction_line">
            <path d="M24,0 L24,24 L0,24 L0,0 L24,0 Z M12.5934901,23.257841 L12.5819402,23.2595131 L12.5108777,23.2950439 L12.4918791,23.2987469 L12.4918791,23.2987469 L12.4767152,23.2950439 L12.4056548,23.2595131 C12.3958229,23.2563662 12.3870493,23.2590235 12.3821421,23.2649074 L12.3780323,23.275831 L12.360941,23.7031097 L12.3658947,23.7234994 L12.3769048,23.7357139 L12.4804777,23.8096931 L12.4953491,23.8136134 L12.4953491,23.8136134 L12.5071152,23.8096931 L12.6106902,23.7357139 L12.6232938,23.7196733 L12.6232938,23.7196733 L12.6266527,23.7031097 L12.609561,23.275831 C12.6075724,23.2657013 12.6010112,23.2592993 12.5934901,23.257841 L12.5934901,23.257841 Z M12.8583906,23.1452862 L12.8445485,23.1473072 L12.6598443,23.2396597 L12.6498822,23.2499052 L12.6498822,23.2499052 L12.6471943,23.2611114 L12.6650943,23.6906389 L12.6699349,23.7034178 L12.6699349,23.7034178 L12.678386,23.7104931 L12.8793402,23.8032389 C12.8914285,23.8068999 12.9022333,23.8029875 12.9078286,23.7952264 L12.9118235,23.7811639 L12.8776777,23.1665331 C12.8752882,23.1545897 12.8674102,23.1470016 12.8583906,23.1452862 L12.8583906,23.1452862 Z M12.1430473,23.1473072 C12.1332178,23.1423925 12.1221763,23.1452606 12.1156365,23.1525954 L12.1099173,23.1665331 L12.0757714,23.7811639 C12.0751323,23.7926639 12.0828099,23.8018602 12.0926481,23.8045676 L12.108256,23.8032389 L12.3092106,23.7104931 L12.3186497,23.7024347 L12.3186497,23.7024347 L12.3225043,23.6906389 L12.340401,23.2611114 L12.337245,23.2485176 L12.337245,23.2485176 L12.3277531,23.2396597 L12.1430473,23.1473072 Z" id="MingCute" fill-rule="nonzero"></path>
            <path d="M2.68609,10.4622 C1.70978,11.4385 1.70978,13.0214 2.68609,13.9977 L5.51452,16.8262 C6.49083,17.8025 8.07374,17.8025 9.05005,16.8262 C9.62838,16.2478 9.86413,15.4567 9.7573,14.7048 L10.7296,13.7325 L16.8081,20.7462 C17.8698,21.9713 19.7479,22.0383 20.8942,20.892 C22.0405,19.7457 21.9735,17.8676 20.7485,16.8059 L13.7348,10.7273 L14.7068,9.75535 C15.4586,9.86217 16.2498,9.62643 16.8281,9.0481 C17.8044,8.07179 17.8044,6.48887 16.8281,5.51256 L13.9997,2.68414 C13.0234,1.70783 11.4405,1.70783 10.4642,2.68414 C9.8858,3.26251 9.65005,4.05376 9.75694,4.80567 L4.80762,9.75499 C4.05571,9.6481 3.26446,9.88384 2.68609,10.4622 Z M12.9391,8.69459 L8.69654,12.9371 L6.57522,10.8158 L10.8178,6.57327 L12.9391,8.69459 Z M4.1003,12.5835 C3.90504,12.3883 3.90504,12.0717 4.1003,11.8764 C4.29557,11.6812 4.61215,11.6812 4.80741,11.8764 L7.63584,14.7049 C7.8311,14.9001 7.8311,15.2167 7.63584,15.412 C7.44058,15.6072 7.12399,15.6072 6.92873,15.412 L4.1003,12.5835 Z M11.8784,4.80546 C11.6831,4.6102 11.6831,4.29361 11.8784,4.09835 C12.0736,3.90309 12.3902,3.90309 12.5855,4.09835 L15.4139,6.92678 C15.6092,7.12204 15.6092,7.43862 15.4139,7.63388 C15.2187,7.82915 14.9021,7.82915 14.7068,7.63388 L11.8784,4.80546 Z M18.3195,19.4364 L12.3115,12.5041 L12.5063,12.3093 L19.4386,18.3172 C19.7865,18.6188 19.8055,19.1522 19.48,19.4777 C19.1544,19.8033 18.621,19.7843 18.3195,19.4364 Z" id="形状" fill="#09244B"></path>
        </g>
    </g>
</svg>

<svg xmlns="http://www.w3.org/2000/svg" width="24" height="24"><g fill="none" fill-rule="evenodd"><path d="M24 0v24H0V0zM12.593 23.258l-.011.002-.071.035-.02.004-.014-.004-.071-.035c-.01-.004-.019-.001-.024.005l-.004.01-.017.428.005.02.01.013.104.074.015.004.012-.004.104-.074.012-.016.004-.017-.017-.427c-.002-.01-.009-.017-.017-.018m.265-.113-.013.002-.185.093-.01.01-.003.011.018.43.005.012.008.007.201.093c.012.004.023 0 .029-.008l.004-.014-.034-.614c-.003-.012-.01-.02-.02-.022m-.715.002a.023.023 0 0 0-.027.006l-.006.014-.034.614c0 .012.007.02.017.024l.015-.002.201-.093.01-.008.004-.011.017-.43-.003-.012-.01-.01z"/><path fill="#09244B" d="M2.686 10.462a2.5 2.5 0 0 0 0 3.536l2.829 2.828a2.5 2.5 0 0 0 4.242-2.121l.973-.973 6.078 7.014a2.793 2.793 0 1 0 3.94-3.94l-7.013-6.079.972-.972a2.5 2.5 0 0 0 2.121-4.243L14 2.685a2.5 2.5 0 0 0-4.243 2.122l-4.95 4.949a2.496 2.496 0 0 0-2.12.707M12.94 8.695l-4.242 4.242-2.122-2.121 4.243-4.243zM4.1 12.584a.5.5 0 1 1 .707-.708l2.829 2.829a.5.5 0 1 1-.707.707zm7.778-7.779a.5.5 0 1 1 .707-.707l2.829 2.829a.5.5 0 1 1-.707.707zm6.442 14.631-6.008-6.932.194-.195 6.933 6.008a.793.793 0 1 1-1.12 1.12"/></g></svg>
